X:330
T:The turnpike gate 2
T:Killannan's fancy
R:Reel
O:Ireland
B:Ceol Rince 3 n116
D:Frankie Gavin & Alec Finn
S:hnreel~1.abc
S:My arrangement from various sources
Z:Transcription, arrangement, chords:Mike Long
M:C|
L:1/8
K:G
"G"GEDE G3B|"D"ADED BDAD|"G"GEDE G2 (3(Bcd)|"C"egdB "D"AcBA|\
"G"GEDE GABG|
"D"AD (3(FED) BDAD|"G"GEDE GABd|"C"eg"D"dB "G"G2Bd|]\
"G"~g3b "D"~a3b|"G"gabg "D/C"agef|"G"gfgb "D"~a3b|
"G"gabg "D/C"agef|\
"G"g2gb "D"agab|"G"gabg "D/C"age2|"Em"Beef edBd|"C"gedB "D"AcBA|]
